X:99
T:Mrs Forbes Leith
C:J.S. Skinner
R:Reel
M:2/4
Q:1/4=120
K:Bb
(uB,A,)B,D FBdc|PBABG FDB,(D|C=B,)CE Bced|cBAG FED(C|
B,A,)B,D FBdc|PBABG FDB,D|EGcd ecgf|!1!f!0!=e!4!_ec Agec||
PB2(AB) Ld(BAB)| fBgB fBdB| F2(=EF) LA(FEF)|cFeF dFcF|
PB2(AB) Ld(BAB)| fBgB fBdB|(EG)ce (DF)Bd| ({/e}dc)BA P[B4D4]|]
